X: 2 % start of header
T:Iridis Alpha Title Theme
T:14 of 100,000,000,000,000
C: (Sid.)
O: Jeff Minter
R:Procedurally Generated
L: 1/8
K: D % scale: C major
V:1 name="Voice 1"
C16    |     |     |     | A,16    |     |     |     | F,16    |     |     |     | F16    |     |     |     | D16    |     |     |     | B,16    |     |     |     | G,16    |     |     |     | G16    |     |     |     | B,16    |     |     |     | ^G,16    |     |     |     | E,16    |     |     |     | E16    |     |     |     | G,16    |     |     |     | E,16    |     |     |     | C,16    |     |     |     | C16    |     |     |     | :|
V:2 name="Voice 2"
G4    | E4    | C4    | c4    | E4    | ^C4    | A,4    | A4    | C4    | A,4    | F,4    | F4    | c4    | A4    | F4    | f4    | A4    | ^F4    | D4    | d4    | ^F4    | ^D4    | B,4    | B4    | D4    | B,4    | G,4    | G4    | d4    | B4    | G4    | g4    | ^F4    | ^D4    | B,4    | B4    | ^D4    | C4    | ^G,4    | ^G4    | B,4    | ^G,4    | E,4    | E4    | B4    | ^G4    | E4    | e4    | D4    | B,4    | G,4    | G4    | B,4    | ^G,4    | E,4    | E4    | G,4    | E,4    | C,4    | C4    | G4    | E4    | C4    | c4    | :|
V:3 name="Voice 3"
d1B1G1g1|B1^G1E1e1|G1E1C1c1|g1e1c1c'1|B1^G1E1e1|^G1F1^C1^c1|E1^C1A,1A1|e1^c1A1a1|G1E1C1c1|E1^C1A,1A1|C1A,1F,1F1|c1A1F1f1|g1e1c1c'1|e1^c1A1a1|c1A1F1f1|c'1a1f1f'1|e1^c1A1a1|^c1^A1^F1^f1|A1^F1D1d1|a1^f1d1d'1|^c1^A1^F1^f1|^A1G1^D1^d1|^F1^D1B,1B1|^f1^d1B1b1|A1^F1D1d1|^F1^D1B,1B1|D1B,1G,1G1|d1B1G1g1|a1^f1d1d'1|^f1^d1B1b1|d1B1G1g1|d'1b1g1g'1|^c1^A1^F1^f1|^A1G1^D1^d1|^F1^D1B,1B1|^f1^d1B1b1|^A1G1^D1^d1|G1E1C1c1|^D1C1^G,1^G1|^d1c1^G1^g1|^F1^D1B,1B1|^D1C1^G,1^G1|B,1^G,1E,1E1|B1^G1E1e1|^f1^d1B1b1|^d1c1^G1^g1|B1^G1E1e1|b1^g1e1e'1|A1^F1D1d1|^F1^D1B,1B1|D1B,1G,1G1|d1B1G1g1|^F1^D1B,1B1|^D1C1^G,1^G1|B,1^G,1E,1E1|B1^G1E1e1|D1B,1G,1G1|B,1^G,1E,1E1|G,1E,1C,1C1|G1E1C1c1|d1B1G1g1|B1^G1E1e1|G1E1C1c1|g1e1c1c'1|:|
